source/img/vkontakte.svg

<svg width="28" height="23" viewBox="0 0 28 23" fill="none" xmlns="http://www.w3.org/2000/svg">
<path d="M1 5.83876C1 4.98373 1.5151 4.52268 2.54531 4.45562L6.51515 4.48077C6.78158 4.48077 6.95921 4.60651 7.04802 4.85799C7.45655 6.11538 7.91392 7.20094 8.42014 8.11465C8.92637 9.02835 9.58801 10.0804 10.4051 11.2707C10.4761 11.4216 10.5916 11.497 10.7514 11.497C10.8758 11.497 10.9735 11.4384 11.0445 11.321L11.1244 11.0444L11.1511 6.69379C11.1511 6.39201 11.0756 6.19083 10.9246 6.09024C10.7736 5.98965 10.4939 5.9142 10.0853 5.86391C9.76563 5.81361 9.60577 5.62919 9.60577 5.31065C9.60577 5.24359 9.61465 5.19329 9.63241 5.15976C10.0054 4.07002 11.0711 3.52515 12.8296 3.52515L14.3216 3.5C14.9966 3.5 15.5561 3.65927 16.0001 3.97781C16.4442 4.29635 16.6662 4.79931 16.6662 5.48669V11.1953C16.7906 11.2791 16.906 11.321 17.0126 11.321C17.279 11.321 17.5099 11.1701 17.7053 10.8683C19.6592 8.28649 20.716 6.55966 20.8759 5.68787C20.8759 5.6711 20.8936 5.62919 20.9291 5.56213C21.0535 5.31065 21.2577 5.0927 21.5419 4.90828C21.8261 4.72387 22.0748 4.59813 22.288 4.53107C22.359 4.49753 22.4389 4.48077 22.5277 4.48077H26.6574L26.9239 4.50592C27.2791 4.50592 27.5544 4.66519 27.7498 4.98373C27.8209 5.08432 27.8697 5.19329 27.8964 5.31065C27.923 5.42801 27.9408 5.54536 27.9496 5.66272C27.9585 5.78008 27.963 5.84714 27.963 5.86391V6.03994C27.8386 6.72732 27.5233 7.4608 27.0171 8.24038C26.5109 9.01997 25.867 9.86243 25.0855 10.7678C24.304 11.6731 23.8155 12.2682 23.6201 12.5533C23.4603 12.7544 23.3803 12.9389 23.3803 13.1065C23.3803 13.2406 23.4514 13.3915 23.5935 13.5592L27.4834 18.1864C27.6965 18.4546 27.8031 18.748 27.8031 19.0666C27.8031 19.4522 27.6432 19.7707 27.3235 20.0222C27.0038 20.2737 26.6219 20.4162 26.1779 20.4497L25.7249 20.4749H21.6752C21.6574 20.4749 21.6219 20.479 21.5686 20.4874C21.5153 20.4958 21.4798 20.5 21.462 20.5C21.0712 20.5 20.7071 20.3407 20.3696 20.0222C20.2453 19.8881 19.4105 18.8989 17.8652 17.0547C17.7764 16.9374 17.652 16.8284 17.4922 16.7278C17.4211 16.9961 17.3279 17.3817 17.2124 17.8846C17.097 18.3876 17.0126 18.748 16.9593 18.966L16.8794 19.3935C16.7018 19.9803 16.3287 20.3323 15.7604 20.4497L15.3874 20.4749H12.7763C11.3021 20.4749 9.83224 19.8378 8.36686 18.5636C6.90148 17.2894 5.58264 15.6423 4.41034 13.622C3.23803 11.6018 2.14566 9.25049 1.13322 6.56805C1.04441 6.3501 1 6.107 1 5.83876ZM17.0126 12.3521C16.6396 12.3521 16.3021 12.2557 16.0001 12.0629C15.6982 11.8701 15.5472 11.606 15.5472 11.2707V5.48669C15.5472 5.15138 15.4584 4.91248 15.2808 4.76997C15.1032 4.62747 14.7923 4.55621 14.3483 4.55621L12.8296 4.60651C12.0658 4.60651 11.4886 4.73225 11.0978 4.98373C11.8793 5.3358 12.2701 5.90582 12.2701 6.69379V11.1198C12.2346 11.539 12.0569 11.8868 11.7372 12.1635C11.4175 12.4401 11.0623 12.5784 10.6715 12.5784C10.1386 12.5784 9.7301 12.3353 9.44591 11.8491C8.06046 9.87081 7.03025 7.9931 6.35529 6.21598L6.1155 5.56213L2.57195 5.53698C2.34104 5.53698 2.21227 5.54956 2.18562 5.5747C2.15898 5.59985 2.14566 5.6711 2.14566 5.78846C2.14566 5.93935 2.16342 6.09862 2.19895 6.26627L2.75845 7.67456C4.25048 11.3126 5.87127 14.1795 7.62085 16.2751C9.37042 18.3708 11.0889 19.4186 12.7763 19.4186H15.4406C15.5472 19.4186 15.6271 19.3893 15.6804 19.3306C15.7337 19.2719 15.7781 19.1588 15.8136 18.9911L15.8669 18.7396L16.3732 16.5266C16.5152 16.2249 16.6396 16.0237 16.7462 15.9231C16.9415 15.7387 17.1725 15.6465 17.4389 15.6465C17.8652 15.6465 18.3003 15.8895 18.7444 16.3757L21.0091 19.0917C21.1512 19.3097 21.3022 19.4186 21.462 19.4186H25.8581C26.391 19.4186 26.6574 19.2929 26.6574 19.0414C26.6574 18.9576 26.6308 18.8738 26.5775 18.7899L22.7142 14.2382C22.4123 13.8861 22.2613 13.5089 22.2613 13.1065C22.2613 12.7041 22.4034 12.3185 22.6876 11.9497C22.9185 11.6144 23.367 11.057 24.0331 10.2774C24.6992 9.49778 25.2809 8.76849 25.7782 8.0895C26.2756 7.4105 26.6042 6.79438 26.764 6.24112L26.8439 5.9142C26.8262 5.88067 26.8173 5.82618 26.8173 5.75074C26.8173 5.6753 26.8084 5.61243 26.7907 5.56213H22.6077C22.3412 5.66272 22.1281 5.81361 21.9682 6.01479L21.8084 6.4926C21.3643 7.64941 20.2009 9.43491 18.3181 11.8491C17.9451 12.1844 17.5099 12.3521 17.0126 12.3521Z" fill="#231F20"/>
</svg>

<svg width="28" height="23" viewBox="0 0 28 23" fill="none" xmlns="http://www.w3.org/2000/svg"><path d="M1 5.8388c0-.855.5151-1.3161 1.5453-1.3832l3.9699.0252c.2664 0 .444.1257.5328.3772.4085 1.2574.866 2.343 1.3721 3.2566.5063.9138 1.168 1.9658 1.985 3.1561.071.1509.1865.2263.3463.2263.1244 0 .2221-.0586.2931-.176l.0799-.2766.0267-4.3506c0-.3018-.0755-.503-.2265-.6036-.151-.1006-.4307-.176-.8393-.2263-.3197-.0503-.4795-.2347-.4795-.5533 0-.067.0088-.1173.0266-.1508.373-1.0898 1.4387-1.6346 3.1972-1.6346l1.492-.0252c.675 0 1.2345.1593 1.6785.4778.4441.3186.6661.8215.6661 1.5089v5.7086c.1244.0838.2398.1257.3464.1257.2664 0 .4973-.1509.6927-.4527 1.9539-2.5818 3.0107-4.3086 3.1706-5.1804 0-.0168.0177-.0587.0532-.1258.1244-.2515.3286-.4694.6128-.6538.2842-.1844.5329-.3102.7461-.3772.071-.0336.1509-.0503.2397-.0503h4.1297l.2665.0251c.3552 0 .6305.1593.8259.4778a.912.912 0 0 1 .1466.327c.0266.1173.0444.2347.0532.352.0089.1174.0134.1844.0134.2012v.176c-.1244.6874-.4397 1.4209-.9459 2.2005-.5062.7796-1.1501 1.622-1.9316 2.5274-.7815.9053-1.27 1.5004-1.4654 1.7855-.1598.2011-.2398.3856-.2398.5532 0 .1341.0711.285.2132.4527l3.8899 4.6272c.2131.2682.3197.5616.3197.8802 0 .3856-.1599.7041-.4796.9556-.3197.2515-.7016.394-1.1456.4275l-.453.0252h-4.0497c-.0178 0-.0533.0041-.1066.0125-.0533.0084-.0888.0126-.1066.0126-.3908 0-.7549-.1593-1.0924-.4778-.1243-.1341-.9591-1.1233-2.5044-2.9675-.0888-.1173-.2132-.2263-.373-.3269-.0711.2683-.1643.6539-.2798 1.1568-.1154.503-.1998.8634-.2531 1.0814l-.0799.4275c-.1776.5868-.5507.9388-1.119 1.0562l-.373.0252h-2.6111c-1.4742 0-2.944-.6371-4.4094-1.9113-1.4654-1.2742-2.7843-2.9213-3.9566-4.9416-1.1723-2.0202-2.2646-4.3715-3.277-7.054C1.0443 6.3502 1 6.107 1 5.8389Zm16.0126 6.5133c-.373 0-.7105-.0964-1.0125-.2892-.3019-.1928-.4529-.4569-.4529-.7922v-5.784c0-.3353-.0888-.5742-.2664-.7167-.1776-.1425-.4885-.2138-.9325-.2138l-1.5187.0503c-.7638 0-1.341.1258-1.7318.3772.7815.3521 1.1723.9221 1.1723 1.71v4.4261c-.0355.4192-.2132.767-.5329 1.0437-.3197.2766-.6749.4149-1.0657.4149-.5329 0-.9414-.2431-1.2256-.7293-1.3854-1.9783-2.4157-3.856-3.0906-5.6331l-.2398-.6539L2.572 5.537c-.231 0-.3597.0126-.3864.0377-.0266.0252-.04.0964-.04.2138 0 .1509.0178.3101.0534.4778l.5595 1.4083c1.492 3.638 3.1128 6.5049 4.8623 8.6005 1.7496 2.0957 3.4681 3.1435 5.1555 3.1435h2.6643c.1066 0 .1865-.0293.2398-.088.0533-.0587.0977-.1718.1332-.3395l.0533-.2515.5063-2.213c.142-.3017.2664-.5029.373-.6035.1953-.1844.4263-.2766.6927-.2766.4263 0 .8614.243 1.3055.7292l2.2647 2.716c.1421.218.2931.3269.4529.3269h4.3961c.5329 0 .7993-.1257.7993-.3772 0-.0838-.0266-.1676-.0799-.2515l-3.8633-4.5517c-.3019-.3521-.4529-.7293-.4529-1.1317s.1421-.788.4263-1.1568c.2309-.3353.6794-.8927 1.3455-1.6723.6661-.7796 1.2478-1.509 1.7451-2.1879.4974-.679.826-1.2951.9858-1.8484l.0799-.3269c-.0177-.0335-.0266-.088-.0266-.1635 0-.0754-.0089-.1383-.0266-.1886h-4.183c-.2665.1006-.4796.2515-.6395.4527l-.1598.4778c-.4441 1.1568-1.6075 2.9423-3.4903 5.3565-.373.3353-.8082.503-1.3055.503Z" fill="#231F20"/></svg>
